X: 30675
T: Ophelia
R: reel
M: 4/4
K: Amixolydian
|:efed acde-|efed adef|G3 g fdAG-|GAde Aagf|
dfed acde-|efed aded|Gggf fddA|AGde eagf:|
|:adef a3 f|edad cdec|Bgfd G3 A|GAde cdef
[1adef a3 f|edad cdec|Gggf fddA|AGde eagf:|
[2adef edad-|dafd cdec|Gggf fddA|AGde eagf||
|:adef a2 f/2e/2d|efA2- ABde|gfdG- GAGA|ABBddefg|
adef edad-|dafd cdec|Gggf fddG|1 gffd dAef:|2 gffd dAcd||

